X: 3
T: AIR: Planxty Irwin
C: C: Turlough O'Carolan; S: Various
C: Set Leaders: Alexey, Sophie, Anton
Z: Anton Zille ed. arr.; Shablabar at The Session
N: https://thesession.org/members/26966/sets/99352
R: Air
M: 3/4
L: 1/8
Q: 1/4=144
K: Gmaj
d2|:g4 f2|e3f g2|d4 c2|B3A G2|
c4 A2|B3c d2|F4 G2|A4 d2|
g4 f2|e3f g2|d4 c2|B3A G2|
c4 A2|B3c d2|G2 A2 F2|G4 d2:||
|:g4 g2|g3f g2|a3b a2|a3f d2|
b4 b2|a3b g2|f3g e2|d2 e2 f2|
g4 f2|e3f g2|d4 c2|B3A G2|
c4 A2|B3c d2|G2 A2 F2|1 G4 d2:|2 G6||

